X: 1
T: Hommage \`a Gilles Laprise
C: Philippe Bruneau
S: http://archive.folx.org/tune/reel/hommage-gilles-laprise-2331 2015-7-14
Z: 2015 John Chambers <jc:trillian.mit.edu>
M: 2/4
L: 1/16
K: D
fg |\
"D"a3a "A7"gfeg | "D"fefg afdf | "A7"edef gecA | "D"defg "(A7)"agfg |
"D"a3a "A7"gfeg | "D(Bm)"fefg afdf | "Em"edef "A7"gecA |1 dfec "D"d2 :|2 dfec "D"d2AA ||
|:\
"D"Afed "G"B3B | "(Em)"Bgfe "D"a2aa | "D"Afed "A"cAce | "A7"ageg "D"fafd |
"D"Afed "G"B3B | "(Em)"Bgfe "D"a2aa | "D"Afed "A"cAce |1 "A7"agec "D"d2dd :|2 "A7"agec "D"d2 |]
